svgs/regular/computer-classic.svg

<svg xmlns="http://www.w3.org/2000/svg" viewBox="0 0 448 512"><!-- Font Awesome Pro 6.0.0-alpha2 by @fontawesome - https://fontawesome.com License - https://fontawesome.com/license (Commercial License) --><path d="M384 0H64C28.654 0 0 28.654 0 64V368C0 391.629 12.951 412.037 32 423.123V480C32 497.674 46.326 512 64 512H384C401.674 512 416 497.674 416 480V423.123C435.049 412.037 448 391.629 448 368V64C448 28.654 419.346 0 384 0ZM368 464H80V432H368V464ZM400 368C400 376.822 392.822 384 384 384H64C55.178 384 48 376.822 48 368V64C48 55.178 55.178 48 64 48H384C392.822 48 400 55.178 400 64V368ZM336 80H112C94.326 80 80 94.326 80 112V208C80 225.672 94.326 240 112 240H336C353.674 240 368 225.672 368 208V112C368 94.326 353.674 80 336 80ZM120 304C106.746 304 96 314.744 96 328C96 341.254 106.746 352 120 352S144 341.254 144 328C144 314.744 133.254 304 120 304ZM352 304H224C215.156 304 208 311.156 208 320S215.156 336 224 336H352C360.844 336 368 328.844 368 320S360.844 304 352 304Z"/></svg>

<svg xmlns="http://www.w3.org/2000/svg" viewBox="0 0 448 512"><!--! Font Awesome Pro 6.3.0 by @fontawesome - https://fontawesome.com License - https://fontawesome.com/license (Commercial License) Copyright 2023 Fonticons, Inc. --><path d="M384 48c8.8 0 16 7.2 16 16V368c0 8.8-7.2 16-16 16H64c-8.8 0-16-7.2-16-16V64c0-8.8 7.2-16 16-16H384zM64 0C28.7 0 0 28.7 0 64V368c0 23.7 12.9 44.4 32 55.4V480c0 17.7 14.3 32 32 32H384c17.7 0 32-14.3 32-32V423.4c19.1-11.1 32-31.7 32-55.4V64c0-35.3-28.7-64-64-64H64zM80 432H368v32H80V432zm0-320v96c0 17.7 14.3 32 32 32H336c17.7 0 32-14.3 32-32V112c0-17.7-14.3-32-32-32H112c-17.7 0-32 14.3-32 32zM208 320c0 8.8 7.2 16 16 16H352c8.8 0 16-7.2 16-16s-7.2-16-16-16H224c-8.8 0-16 7.2-16 16zm-88 32a24 24 0 1 0 0-48 24 24 0 1 0 0 48z"/></svg>
